X: 269
T: The George or Folly Hornpipe
M:3/2
L:1/8
C:Ravenscroft
S: 8: MCJLSH3 http://www.cpartington.plus.com/links/Walsh.abc
Z: Pete Stewart 2004
B: Walsh "Third Book of the most Celebrated jiggs, Lancashire hornpipes, ..."
K:GMin
F2B,4G2F2B,2 | BAGF GCEF D4 | edcB cGBc BAGF | GFED ECDFA,4 |
F2B,4G2F2B,2 | BAGF GCEF D4 | edcB A2f2edcB | AFGD ECDA,B,4 ||
f2B4b2g2e2 | cdec f2B2A4 | Bcde fBAB gBAB | babg afg=ef2 |
f2_a4gf gede | g2b4ag af=ef | b2fdg2ecf2dB | AFED ECDA,B,4 ||

%%sep 1 1 500
%%sep 1 1 500
